X: 16
T: I Am Like a Bear
N: Derived from pawnee16.krn
O: Oklahoma, U.S.A.
N: from Pawnee Music by Frances Densmore, 1926
Z: transcribed to **kern format by David Huron, August 2000
C: Skidi and Chaui Bands, 1919
L: 1/4
M: 2/4
Q: 1/4=88
K: Ab clef=bass
%%linebreak <none>
C/> E/E[M:5/4] [I:setbarnb 1]| 
E2>C2C[M:3/4] | 
CCC[M:4/4] | 
C3z | 
Ez/ C/CCD[M:4/4] | 
E3C/ C/[M:5/6] | 
A,A,E,E,E,/ z/[M:3/4] | 
E,E,E, | 
E,E,z[M:5/4] | 
A,/ F,/E,C/ A,/!fermata!E,!fermata!E, | 
E,E,C,C,C,/ z/[M:4/4] | 
E,E,E,E,/ E,/[M:5/4] | 
E,E,E,3 | 
E,E,E,E,E,3// E// | 
ECCCD[M:4/4] | 
E3C/ C/[M:5/6] | 
A,A,E,E,E,/ z/[M:3/4] | 
E,EE, | 
E,E,z[M:5/6] | 
A,/ F,/E,C/ A,/!fermata!E,!fermata!E, | 
E,E,C,C,C,/ z/[M:4/4] | 
E,E,E,E,/ E,/ | 
E,E,E,3 |]  



